X: 41
M: 2/2
L: 1/8
K: F
(fe) |\
d2(cB) A2G2 | A2F2 D3E |\
d2(cB) A2G2 | A2F2 D3F |\
E2G2 C2(DE) | F4 F2 |]
(cB) |\
d2(cB) A2G2 | A2F2 D3F |\
E2G2 C2(DE) | F4 F2 |]

